X:1
T:Lesson 1 - Playing the Open Strings
M:C
K:C
L:1/4
ve e e e|e e e e|A A A A|A A A A|
D D D D|D D D D|G, G, G, G,|G, G, G, G,|]
%M:C
ve2 e2|e2 e2|e2 e2|e2 e2|A2 A2|A2 A2|A2 A2|A2 A2|
D2 D2|D2 D2|D2 D2|D2 D2|G,2 G,2|G,2 G,2|G,2 G,2|G,2 G,2|]
